!!!OTL: Et sass e kli waelt Vijeltchen af enem graenen Naestchen
!!!ARE: Europa, Mitteleuropa, Deutschland, Siebenbuergen
!!!SCT: D0220
!!!YEM: Copyright 1995, estate of Helmut Schaffrath.
**kern
*ICvox
*Ivox
!! Mixed meters:  3/4; 2/4
*M3/4
*k[b-e-]
*g:
{8d
=1
8.g
16g
4.g
8a
=2
8.b-
16a
4g
8r}
{8g
=3
*M2/4
8dd
8dd
8d
8d
=4
*M3/4
4g
4g
8r}
{8dd
=5
8.dd
16cc
4.b-
8dd
=6
8.cc
16b-
4a
8r}
{8a
=7
8.g
16g
4.b-
8f#
=8
4g
4g
8r}
==
!!!AGN: Liebes - Ballade
!! Variante zum folgenden D0220A, Inzipit = Variante zum Lied
!!!ONB: ESAC (Essen Associative Code) Database: DVA
!!!AMT: irregular
!!!AIN: vox
!!!EED: Helmut Schaffrath
!!!EEV: 1.0
*-
